X:1
T:Title
%%score [ ( 1 2 ) ( 3 4 ) ] { ( 5 6 ) | 7 }
L:1/8
Q:1/4=120
M:4/4
K:Bb
V:1 treble nm="Midi_74"
V:2 treble 
V:3 bass nm="Midi_74"
V:4 bass 
V:5 treble nm="Org."
V:6 treble 
V:7 bass 
V:1
 B8 | A4 A4 | G8 || G8 | e4 d4 | c4 B4 | A8 || A8 | B4 A4 | d8 || c8 | B4 G4 | %12
"^John Camidge\n(1790-1859)" A4 ^F4 | G8 |] %14
V:2
 D8 | E4 (D2 C2) | B,8 || (=B,6 F2) | E4 F4 | G4 =E4 | ^F8 || D8 | D4 D4 | D8 || D8 | D4 E4 | %12
 E4 D4 | D8 |] %14
V:3
 G,8 | G,4 ^F,4 | G,8 || G,8 | G,4 G,4 | G,4 G,4 | ^F,8 || ^F,8 | G,4 ^F,4 | G,8 || ^F,8 | %11
 G,4 G,4 | G,4 C4 | B,8 |] %14
V:4
 G,,8 | C,4 D,4 | E,8 || D,8 | C,4 D,4 | E,4 ^C,4 | D,8 || D,8 | D,4 C,4 | B,,8 || A,,8 | %11
 G,,4 E,4 | C,4 D,4 | G,,8 |] %14
V:5
 [GB]8 | [GA]4 [^FA]4 | G8 || [=B,FG]8 | e4 d4 | c4 B4 | A8 || A8 | B4 A4 | d8 || c8 | B4 G4 | %12
 A4 ^F4 | [B,G]8 |] %14
V:6
 D8 | E4 D2 C2 | B,8 || x8 | [EG]4 [DG]4 | [CG]4 [=EG]4 | ^F8 || [D^F]8 | [DG]4 [D^F]4 | [DG]8 || %10
 [D^F]8 | [DG]4 [B,E]4 | [CE]4 [A,CD]4 | D8 |] %14
V:7
 [G,,G,]8 |"^8 vi" C,4 D,4 | E,8 || D,8 | C,4 D,4 | E,4 ^C,4 | D,8 || D,8 | D,4 [C,C]4 | %9
 [B,,B,]8 || [A,,A,]8 | [G,,G,]4 [E,G,]4 | [C,E,]4 D,4 | [G,,G,]8 |] %14

